X: 184
T:Shir Noded
O:Israel
L:1/8
M:4/4
Q:1/4=120
K:Am
|:"Am"[A,2E2][C2A2][C2A2] AB| [A6c6] cB             |dc cB "E"BA ^GA       | "E"[E6B6] z2 :|
|:"Am"[A3e3]f ed c2         | "Dm"[F3d3]e "G"dc B2  |[1 "Am"dc cB "E"BA ^GA|\
  "E"[D6B6] z2              :|[2 "Am"dc cB "E"BA ^GB| "Am"A8               |



